package/converter/svg/light/folder-user.svg

<svg xmlns="http://www.w3.org/2000/svg" viewBox="0 0 512 512"><!-- Font Awesome Pro 6.0.0-alpha2 by @fontawesome - https://fontawesome.com License - https://fontawesome.com/license (Commercial License) --><path d="M448 96H272L226.746 50.746C214.742 38.742 198.465 32 181.49 32H64C28.654 32 0 60.654 0 96V416C0 451.346 28.654 480 64 480H448C483.346 480 512 451.346 512 416V160C512 124.654 483.346 96 448 96ZM480 416C480 433.645 465.645 448 448 448H64C46.355 448 32 433.645 32 416V96C32 78.355 46.355 64 64 64H181.49C190.039 64 198.074 67.328 204.117 73.375L249.373 118.627L258.746 128H448C465.645 128 480 142.355 480 160V416ZM256 288C291.346 288 320 259.346 320 224S291.346 160 256 160S192 188.654 192 224S220.654 288 256 288ZM256 192C273.645 192 288 206.355 288 224S273.645 256 256 256S224 241.645 224 224S238.355 192 256 192ZM288 320H224C179.816 320 144 355.816 144 400C144 408.836 151.164 416 160 416S176 408.836 176 400C176 373.49 197.49 352 224 352H288C314.51 352 336 373.49 336 400C336 408.836 343.164 416 352 416S368 408.836 368 400C368 355.816 332.184 320 288 320Z"/></svg>

<svg xmlns="http://www.w3.org/2000/svg" viewBox="0 0 512 512"><!--! Font Awesome Pro 6.6.0 by @fontawesome - https://fontawesome.com License - https://fontawesome.com/license (Commercial License) Copyright 2024 Fonticons, Inc. --><path d="M32 96c0-17.7 14.3-32 32-32l124.1 0c8.5 0 16.6 3.4 22.6 9.4l35.9 35.9c12 12 28.3 18.7 45.3 18.7L448 128c17.7 0 32 14.3 32 32l0 256c0 17.7-14.3 32-32 32L64 448c-17.7 0-32-14.3-32-32L32 96zM64 32C28.7 32 0 60.7 0 96L0 416c0 35.3 28.7 64 64 64l384 0c35.3 0 64-28.7 64-64l0-256c0-35.3-28.7-64-64-64L291.9 96c-8.5 0-16.6-3.4-22.6-9.4L233.4 50.7c-12-12-28.3-18.7-45.3-18.7L64 32zM256 192a32 32 0 1 1 0 64 32 32 0 1 1 0-64zm0 96a64 64 0 1 0 0-128 64 64 0 1 0 0 128zm-32 64l64 0c26.5 0 48 21.5 48 48c0 8.8 7.2 16 16 16s16-7.2 16-16c0-44.2-35.8-80-80-80l-64 0c-44.2 0-80 35.8-80 80c0 8.8 7.2 16 16 16s16-7.2 16-16c0-26.5 21.5-48 48-48z"/></svg>
